img/sect-features/3.svg

<svg width="120" height="93" viewBox="0 0 120 93" fill="none" xmlns="http://www.w3.org/2000/svg">
<path d="M100.136 35.034C73.6735 19.7279 46.3265 19.7279 19.8639 35.034C6.59864 42.6531 0 50.4082 0 58.1633C0 65.9184 6.59864 73.6735 19.8639 81.3606C46.3265 96.6667 73.6735 96.6667 100.136 81.3606C113.401 73.7415 120 65.9184 120 58.1633C120 50.4082 113.401 42.6531 100.136 35.034Z" fill="#949494"/>
<path d="M100.136 69.7959C73.6735 85.102 46.3265 85.102 19.8639 69.7959C6.59864 62.1769 0 54.3537 0 46.5986V58.1633C0 65.9184 6.59864 73.6735 19.8639 81.3605C46.3265 96.6667 73.6735 96.6667 100.136 81.3605C113.401 73.7415 120 65.9184 120 58.1633V46.5986C120 54.3537 113.401 62.1769 100.136 69.7959Z" fill="url(#paint0_linear)"/>
<path d="M100.136 23.4693C73.6735 8.16322 46.3265 8.16322 19.8639 23.4693C6.59864 31.0884 0 38.8435 0 46.5986C0 54.3537 6.59864 62.1088 19.8639 69.7959C46.3265 85.102 73.6735 85.102 100.136 69.7959C113.401 62.1768 120 54.3537 120 46.5986C120 38.8435 113.401 31.0884 100.136 23.4693Z" fill="#EF5619"/>
<path d="M80.3401 34.8979C66.9388 27.1428 53.1293 27.1428 39.7279 34.8979C32.9932 38.7754 29.6599 42.653 29.6599 46.5985C29.6599 50.5441 32.9932 54.4897 39.7279 58.2992C53.1293 66.0543 66.9388 66.0543 80.3401 58.2992C87.0068 54.4217 90.4082 50.4761 90.4082 46.5985C90.3401 42.653 87.0068 38.7754 80.3401 34.8979Z" fill="#EF6719"/>
<path d="M70.2041 4.5578C61.9048 -0.272134 54.5578 -1.15649 50.2041 1.36052L45.8504 3.87753C45.3742 4.14963 44.966 4.48977 44.5578 4.82991C39.4558 2.58501 35.034 2.38093 32.1769 4.01358L28.7755 5.98637C26.6667 7.21086 25.3742 9.52378 25.3742 12.7211C25.3742 17.0748 27.6871 22.3129 31.2925 27.2109L28.0272 33.0612L36.7347 33.1973C39.1157 35.4422 41.7007 37.4149 44.4898 38.9796C50.6123 42.517 56.1225 43.3333 59.5918 41.7007C61.6327 43.2653 63.7415 44.7619 65.9184 46.0544C69.4558 48.0952 72.7891 49.3877 75.7823 50.068L86.8708 62.585L91.2245 60.068L87.2789 48.4353L90.3401 46.6666C93.0612 45.102 94.6939 42.1768 94.6939 38.0952C94.6258 27.3469 83.6735 12.3129 70.2041 4.5578Z" fill="#CF2D00"/>
<path d="M47.8912 6.46253C41.3606 2.72104 35.6463 2.04077 32.1769 4.01356L28.7755 5.98634C32.2449 4.01356 37.9592 4.69383 44.4898 8.43532C55.034 14.4897 63.6055 26.3265 63.6055 34.7619C63.6055 38.0272 62.381 40.2721 60.2041 41.4965L63.6055 39.5238C65.7143 38.2993 67.0068 35.9863 67.0068 32.7891C67.0068 24.3537 58.4354 12.585 47.8912 6.46253Z" fill="url(#paint1_linear)"/>
<path d="M44.4898 8.43536C37.9592 4.69387 32.2449 3.94557 28.7755 5.98638C26.6667 7.21087 25.3742 9.5238 25.3742 12.7211C25.3742 17.0748 27.6871 22.3129 31.2925 27.2109L28.0272 33.0612L36.7347 33.1973C39.1157 35.4422 41.7007 37.415 44.4898 38.9796C51.0204 42.7211 56.7347 43.4694 60.2041 41.4286C62.3129 40.2041 63.6055 37.8911 63.6055 34.6939C63.6055 26.3265 55.034 14.4898 44.4898 8.43536Z" fill="#FFC600"/>
<path d="M91.1565 60.136L86.8708 62.653L82.7211 50.3401L87.0068 47.8911L91.1565 60.136Z" fill="url(#paint2_linear)"/>
<path d="M70.2041 4.5578C61.9048 -0.272134 54.5579 -1.15649 50.2041 1.36052L45.8504 3.87753C50.2721 1.36052 57.5511 2.24487 65.9184 7.0748C79.3878 14.8299 90.2721 29.8639 90.2721 40.6803C90.2721 44.8299 88.6395 47.6871 85.9184 49.2517L90.2721 46.7347C92.9932 45.17 94.6259 42.2449 94.6259 38.1632C94.6259 27.3469 83.6735 12.3129 70.2041 4.5578Z" fill="url(#paint3_linear)"/>
<path d="M82.7211 50.34C83.9456 50.1359 85.034 49.7278 85.9864 49.1836C88.7075 47.6189 90.3402 44.6938 90.3402 40.6121C90.3402 29.8638 79.4558 14.8298 65.9864 7.0067C57.6871 2.24479 50.3402 1.29241 45.9184 3.80942C43.1293 5.44207 41.4966 8.36724 41.4966 12.5169C41.4966 23.2652 52.381 38.2992 65.8504 46.1223C69.3878 48.1632 72.7211 49.4557 75.7143 50.1359L86.8027 62.653L82.7211 50.34Z" fill="#B1D400"/>
<path d="M65.9864 21.4285C64.7619 20.7482 63.6734 20.6802 62.8571 21.0884L59.7279 22.8571C60.5442 22.3809 61.6326 22.4489 62.8571 23.1972C65.3061 24.6258 67.2789 28.0272 67.2789 30.8843C67.2789 32.3129 66.8027 33.2652 65.9864 33.7414L69.1156 31.9727C69.9319 31.4965 70.4081 30.5442 70.4081 29.1156C70.4081 26.2584 68.4354 22.8571 65.9864 21.4285Z" fill="white"/>
<path d="M58.4354 25.7823C58.4354 28.6395 60.4082 32.0408 62.8571 33.4694C64.0816 34.1497 65.1701 34.2177 65.9864 33.8095C66.8027 33.4014 67.2789 32.3809 67.2789 30.9524C67.2789 28.1633 65.3061 24.6939 62.8571 23.2653C61.6326 22.585 60.5442 22.517 59.7279 22.9252C58.9796 23.4014 58.4354 24.3537 58.4354 25.7823Z" fill="#F0F0F0"/>
<path d="M54.4218 16.1904C53.5374 15.6462 52.7211 15.6462 52.1089 15.9864L49.7959 17.2789C50.4082 16.9387 51.2245 17.0068 52.1089 17.483C53.8776 18.5034 55.3742 21.0204 55.3742 23.1292C55.3742 24.1496 55.034 24.8979 54.4218 25.2381L56.7347 23.9456C57.347 23.6054 57.6871 22.8571 57.6871 21.8367C57.6871 19.7279 56.2585 17.2109 54.4218 16.1904Z" fill="white"/>
<path d="M48.9116 19.3878C48.9116 21.4286 50.3401 24.0137 52.1769 25.0341C53.0612 25.5783 53.8775 25.5783 54.4898 25.2382C55.102 24.898 55.4422 24.1497 55.4422 23.1293C55.4422 21.0885 54.0136 18.5035 52.1769 17.4831C51.2925 16.9388 50.4762 16.9388 49.8639 17.279C49.2517 17.6191 48.9116 18.3674 48.9116 19.3878Z" fill="#F0F0F0"/>
<path d="M77.483 29.3878C76.5986 28.8436 75.7823 28.8436 75.1701 29.1838L72.8571 30.4763C73.4694 30.1361 74.2857 30.2042 75.1701 30.6804C76.9388 31.7008 78.4354 34.2178 78.4354 36.3266C78.4354 37.347 78.0952 38.0953 77.483 38.4355L79.7959 37.1429C80.4082 36.8028 80.7483 36.0545 80.7483 35.0341C80.7483 32.9253 79.2517 30.4082 77.483 29.3878Z" fill="white"/>
<path d="M71.9048 32.5171C71.9048 34.5579 73.3333 37.1429 75.1701 38.1633C76.0544 38.7076 76.8707 38.7076 77.483 38.3674C78.0952 38.0273 78.4354 37.279 78.4354 36.2586C78.4354 34.2178 77.0068 31.6327 75.1701 30.6123C74.2857 30.0681 73.4694 30.0681 72.8571 30.4082C72.3129 30.8164 71.9048 31.4967 71.9048 32.5171Z" fill="#F0F0F0"/>
<defs>
<linearGradient id="paint0_linear" x1="0" y1="69.718" x2="120.003" y2="69.718" gradientUnits="userSpaceOnUse">
<stop stop-color="#FF682B"/>
<stop offset="0.0719216" stop-color="#FF6B2E"/>
<stop offset="0.3006" stop-color="#FF6D31"/>
<stop offset="0.5494" stop-color="#F65D21"/>
<stop offset="0.7441" stop-color="#F3571B"/>
<stop offset="1" stop-color="#C93000"/>
</linearGradient>
<linearGradient id="paint1_linear" x1="38.3442" y1="0.444304" x2="61.5747" y2="40.6806" gradientUnits="userSpaceOnUse">
<stop stop-color="#FFA500"/>
<stop offset="0.0554341" stop-color="#FFA700"/>
<stop offset="0.3006" stop-color="#FFAA00"/>
<stop offset="0.5494" stop-color="#FF9A00"/>
<stop offset="0.7441" stop-color="#FF9400"/>
<stop offset="1" stop-color="#FF6D00"/>
</linearGradient>
<linearGradient id="paint2_linear" x1="83.7642" y1="49.75" x2="90.112" y2="60.7447" gradientUnits="userSpaceOnUse">
<stop stop-color="#99C900"/>
<stop offset="0.0336594" stop-color="#99C900"/>
<stop offset="0.301" stop-color="#99C900"/>
<stop offset="0.4138" stop-color="#8AC500"/>
<stop offset="0.5494" stop-color="#81C300"/>
<stop offset="0.7357" stop-color="#7EC200"/>
<stop offset="1" stop-color="#7EC200"/>
</linearGradient>
<linearGradient id="paint3_linear" x1="58.0368" y1="-3.15731" x2="87.6873" y2="48.199" gradientUnits="userSpaceOnUse">
<stop stop-color="#99C900"/>
<stop offset="0.0336594" stop-color="#99C900"/>
<stop offset="0.301" stop-color="#99C900"/>
<stop offset="0.4138" stop-color="#8AC500"/>
<stop offset="0.5494" stop-color="#81C300"/>
<stop offset="0.7357" stop-color="#7EC200"/>
<stop offset="1" stop-color="#7EC200"/>
</linearGradient>
</defs>
</svg>

<svg width="120" height="93" viewBox="0 0 120 93" fill="none" xmlns="http://www.w3.org/2000/svg"><path d="M100.136 35.034c-26.462-15.306-53.81-15.306-80.272 0C6.599 42.654 0 50.408 0 58.164c0 7.754 6.599 15.51 19.864 23.197 26.463 15.306 53.81 15.306 80.272 0C113.401 73.74 120 65.918 120 58.163c0-7.755-6.599-15.51-19.864-23.129z" fill="#949494"/><path d="M100.136 69.796c-26.462 15.306-53.81 15.306-80.272 0C6.599 62.176 0 54.354 0 46.599v11.564c0 7.755 6.599 15.51 19.864 23.198 26.463 15.306 53.81 15.306 80.272 0C113.401 73.74 120 65.918 120 58.163V46.6c0 7.755-6.599 15.578-19.864 23.197z" fill="url(#a)"/><path d="M100.136 23.47c-26.462-15.307-53.81-15.307-80.272 0C6.599 31.087 0 38.842 0 46.598c0 7.755 6.599 15.51 19.864 23.197 26.463 15.306 53.81 15.306 80.272 0C113.401 62.176 120 54.354 120 46.599c0-7.755-6.599-15.51-19.864-23.13z" fill="#EF5619"/><path d="M80.34 34.898c-13.401-7.755-27.21-7.755-40.612 0-6.735 3.877-10.068 7.755-10.068 11.7 0 3.946 3.333 7.892 10.068 11.701 13.401 7.755 27.21 7.755 40.612 0 6.667-3.877 10.068-7.823 10.068-11.7-.068-3.946-3.401-7.824-10.068-11.701z" fill="#EF6719"/><path d="M70.204 4.558c-8.3-4.83-15.646-5.714-20-3.197L45.85 3.878c-.476.272-.884.612-1.292.952-5.102-2.245-9.524-2.45-12.381-.816l-3.401 1.972c-2.11 1.225-3.402 3.538-3.402 6.735 0 4.354 2.313 9.592 5.919 14.49l-3.266 5.85 8.708.136c2.38 2.245 4.966 4.218 7.755 5.783 6.122 3.537 11.633 4.353 15.102 2.72 2.04 1.565 4.15 3.062 6.326 4.354 3.538 2.041 6.871 3.334 9.864 4.014l11.089 12.517 4.354-2.517-3.946-11.633 3.061-1.768c2.721-1.565 4.354-4.49 4.354-8.572-.068-10.748-11.02-25.782-24.49-33.537z" fill="#CF2D00"/><path d="M47.891 6.463c-6.53-3.742-12.245-4.422-15.714-2.45l-3.401 1.973c3.469-1.972 9.183-1.292 15.714 2.45 10.544 6.054 19.115 17.89 19.115 26.326 0 3.265-1.224 5.51-3.4 6.734l3.4-1.972c2.11-1.225 3.402-3.538 3.402-6.735 0-8.435-8.572-20.204-19.116-26.326z" fill="url(#b)"/><path d="M44.49 8.435c-6.53-3.741-12.245-4.49-15.715-2.449-2.108 1.225-3.4 3.538-3.4 6.735 0 4.354 2.312 9.592 5.918 14.49l-3.266 5.85 8.708.136c2.38 2.245 4.966 4.218 7.755 5.783 6.53 3.741 12.245 4.49 15.714 2.449 2.109-1.225 3.401-3.538 3.401-6.735 0-8.368-8.571-20.204-19.115-26.259z" fill="#FFC600"/><path d="M91.156 60.136l-4.285 2.517-4.15-12.313 4.286-2.449 4.15 12.245z" fill="url(#c)"/><path d="M70.204 4.558c-8.3-4.83-15.646-5.714-20-3.197L45.85 3.878c4.422-2.517 11.701-1.633 20.068 3.197 13.47 7.755 24.354 22.789 24.354 33.605 0 4.15-1.633 7.007-4.354 8.572l4.354-2.517c2.721-1.565 4.354-4.49 4.354-8.572 0-10.816-10.953-25.85-24.422-33.605z" fill="url(#d)"/><path d="M82.721 50.34a9.79 9.79 0 0 0 3.265-1.156c2.721-1.565 4.354-4.49 4.354-8.572 0-10.748-10.884-25.782-24.354-33.605-8.299-4.762-15.646-5.715-20.068-3.198-2.789 1.633-4.421 4.558-4.421 8.708 0 10.748 10.884 25.782 24.353 33.605 3.538 2.041 6.871 3.334 9.864 4.014l11.089 12.517L82.72 50.34z" fill="#B1D400"/><path d="M65.986 21.428c-1.224-.68-2.313-.748-3.129-.34l-3.13 1.77c.817-.477 1.906-.41 3.13.34 2.45 1.428 4.422 4.83 4.422 7.686 0 1.429-.476 2.381-1.293 2.857l3.13-1.768c.816-.476 1.292-1.429 1.292-2.857 0-2.858-1.973-6.259-4.422-7.688z" fill="#fff"/><path d="M58.435 25.782c0 2.858 1.973 6.259 4.422 7.687 1.225.68 2.313.749 3.13.34.816-.408 1.292-1.428 1.292-2.857 0-2.789-1.973-6.258-4.422-7.687-1.224-.68-2.313-.748-3.13-.34-.747.476-1.292 1.429-1.292 2.857z" fill="#F0F0F0"/><path d="M54.422 16.19c-.885-.544-1.7-.544-2.313-.204l-2.313 1.293c.612-.34 1.428-.272 2.313.204 1.769 1.02 3.265 3.537 3.265 5.646 0 1.02-.34 1.769-.952 2.11l2.313-1.293c.612-.34.952-1.089.952-2.11 0-2.108-1.428-4.625-3.265-5.646z" fill="#fff"/><path d="M48.912 19.388c0 2.04 1.428 4.626 3.265 5.646.884.544 1.7.544 2.313.204.612-.34.952-1.088.952-2.109 0-2.04-1.428-4.626-3.265-5.646-.885-.544-1.7-.544-2.313-.204-.612.34-.952 1.088-.952 2.109z" fill="#F0F0F0"/><path d="M77.483 29.388c-.884-.544-1.7-.544-2.313-.204l-2.313 1.292c.612-.34 1.429-.272 2.313.204 1.769 1.02 3.265 3.538 3.265 5.647 0 1.02-.34 1.768-.952 2.108l2.313-1.292c.612-.34.952-1.089.952-2.109 0-2.109-1.496-4.626-3.265-5.646z" fill="#fff"/><path d="M71.905 32.517c0 2.04 1.428 4.626 3.265 5.646.884.545 1.7.545 2.313.204.612-.34.952-1.088.952-2.108 0-2.041-1.428-4.626-3.265-5.647-.884-.544-1.7-.544-2.313-.204-.544.408-.952 1.089-.952 2.11z" fill="#F0F0F0"/><defs><linearGradient id="a" y1="69.718" x2="120.003" y2="69.718" gradientUnits="userSpaceOnUse"><stop stop-color="#FF682B"/><stop offset=".072" stop-color="#FF6B2E"/><stop offset=".301" stop-color="#FF6D31"/><stop offset=".549" stop-color="#F65D21"/><stop offset=".744" stop-color="#F3571B"/><stop offset="1" stop-color="#C93000"/></linearGradient><linearGradient id="b" x1="38.344" y1=".444" x2="61.575" y2="40.681" gradientUnits="userSpaceOnUse"><stop stop-color="#FFA500"/><stop offset=".055" stop-color="#FFA700"/><stop offset=".301" stop-color="#FA0"/><stop offset=".549" stop-color="#FF9A00"/><stop offset=".744" stop-color="#FF9400"/><stop offset="1" stop-color="#FF6D00"/></linearGradient><linearGradient id="c" x1="83.764" y1="49.75" x2="90.112" y2="60.745" gradientUnits="userSpaceOnUse"><stop stop-color="#99C900"/><stop offset=".034" stop-color="#99C900"/><stop offset=".301" stop-color="#99C900"/><stop offset=".414" stop-color="#8AC500"/><stop offset=".549" stop-color="#81C300"/><stop offset=".736" stop-color="#7EC200"/><stop offset="1" stop-color="#7EC200"/></linearGradient><linearGradient id="d" x1="58.037" y1="-3.157" x2="87.687" y2="48.199" gradientUnits="userSpaceOnUse"><stop stop-color="#99C900"/><stop offset=".034" stop-color="#99C900"/><stop offset=".301" stop-color="#99C900"/><stop offset=".414" stop-color="#8AC500"/><stop offset=".549" stop-color="#81C300"/><stop offset=".736" stop-color="#7EC200"/><stop offset="1" stop-color="#7EC200"/></linearGradient></defs></svg>
